!!!COM: ariana grande
!!!OTL: ghostin
**kern
*part1
*staff1
*
*
*clefG2
*k[f#c#g#]
*A:
*M4/4
=1
8r
8cc#L
8cc#
8eeJ
8gg#L
8aa
8gg#
8cc#J
=2
1ee
=3
8r
8cc#L
8cc#
8eeJ
8gg#L
8aa
8gg#
8cc#J
=4
2.ee
16ddLL
16cc#J
[8bJ
=5
8bL]
8a
8a
8aJ
4a
16ddLL
16cc#J
[8bJ
=6
8bL]
8a
8a
8aJ
4a
8f#L
[8bJ
!!linebreak:original
=7
2.b]
16f#KL
[8.bJ
=8
1b]
=9
8r
8cc#L
8cc#
8eeJ
8gg#L
8aa
8gg#
8cc#J
=10
1ee
=11
8r
8cc#L
8cc#
8eeJ
8gg#L
8aa
8gg#
8cc#J
=12
2.ee
16ddLL
16cc#J
[8bJ
=13
8bL]
8a
8a
8aJ
4a
16ddLL
16cc#J
[8bJ
!!linebreak:original
=14
8bL]
8a
8a
8aJ
4a
8f#L
[8bJ
=15
2.b]
16f#KL
[8.bJ
=16
8bL]
8ee
8ee
8eeJ
8ddL
8cc#J
4b
=17
4a
8eeL
8eeJ
8eeL
8ee
8ee
[8eeJ
=18
8eeL]
8ee
8ee
8eeJ
4bb
4ccc#
=19
4r
8eeL
8eeJ
8eeL
8ee
8ee
[8eeJ
!!linebreak:original
=20
8eeL]
8ee
8ee
8eeJ
8bbL
8bbJ
4ccc#
=21
4r
8r
16eeLL
16eeJJ
8bbL
8aa
8gg#
8aaJ
=22
8gg#L
8ff#
8ff#
8gg#J
4ff#
4ee
=23
4r
8r
8ee
8.dddL
[16ccc#Jk
8ccc#L]
8eeJ
=24
8dddL
[8ccc#J
2.ccc#]
=25
4r
4aa
4ee
8cc#L
8eeJ
!!linebreak:original
=26
8.ff#L
[16eeJk
8eeL]
8cc#J
8bL
8a
8f#
8cc#J
=27
8b
[4.b
4.b]
[8cc#
=28
16cc#LL]
16bJJ
[4b
4.b]
4a
=29
4r
4aa
4ee
8cc#L
8eeJ
=30
8.ff#L
[16eeJk
8eeL]
8cc#J
8bL
8a
8f#
8cc#J
=31
8b
[4.b
8bL]
8f#
8g#
[8ddJ
!!pagebreak:original
=32
16ddLL]
16cc#JJ
[4.cc#
8cc#L]
8e
8e
8bJ
=33
4.cc#
[8cc#
8cc#L]
8e
8e
8bJ
=34
4.cc#
[8cc#
8cc#L]
8e
8e
8bJ
=35
4.cc#
[8cc#
4.cc#]
8a
=36
8ddL
8cc#
8a
8ddJ
8cc#L
8e
8e
8bJ
=37
4.cc#
[8cc#
8cc#L]
8e
8e
8bJ
!!linebreak:original
=38
4.cc#
[8cc#
8cc#L]
8e
8e
8bJ
=39
4.cc#
[8cc#
4.cc#]
8a
=40
8ddL
8cc#
8a
8ddJ
8cc#L
8a
8a
8bJ
=41:|!
8ddL
8cc#
8a
8ddJ
8cc#L
8e
8e
8bJ
=42||
1cc#
=43
1cc#
=44
1b
=45
2dd
2cc#
=46
1cc#
!!linebreak:original
=47
2cc#
2ee
=48
1b
=49
2dd
2cc#
=50
1cc#
=51
2cc#
2ff#
=52
1ee
=53
2dd
2cc#
=54
1cc#
=55
2cc#
2ee
=56
1a
=57
2dd
2cc#
=58
1cc#
==
*-
!!!system-decoration: {(s1,s2)}
!!!YEM: ariana grande
